!!!COM: Béla Bartók
!!!OTL: [T333_Bar-w26p38h22m1-h24m6]
**kern	**kern	**dynam	**kern	**dynam
!!pagebreak:original
*clefF4	*clefF4	*	*clefG2	*
*k[]	*k[]	*	*k[]	*
*C:	*C:	*	*C:	*
*M2/4	*M2/4	*	*M2/4	*
=1	=1	=1	=1	=1
!	!	!	!LO:TX:t=[quarter]=86	!
!	!	!	!LO:TX:t=[quarter]=86	!
2ryy	8r	f	2r	.
.	(8FF#X^L 8AA 8Dn 8E#X	.	.	.
.	.	.	.	.
.	8FF#J 8AA 8D 8E#	.	.	.
=2	=2	=2	=2	=2
2ryy	.	.	2r	.
.	8FF#X 8AA 8Dn 8E#X	.	.	.
.	.	.	.	.
.	8FF#J 8AA 8D 8E#	.	.	.
=3	=3	=3	=3	=3
!	!LO:TX:b:i:t=dim.	!	!	!
2ryy	(8FF#X^L 8AA 8Dn 8E#X	.	2r	.
.	.	.	.	.
.	8FF# 8AA 8D 8E#	.	.	.
.	8FF#J 8AA 8D 8E#	.	.	.
=4	=4	=4	=4	=4
!	!	!	!LO:TX:a:t=accel.	!
!	!	!	!LO:TX:a:t=accel.	!
2ryy	.	.	2r	.
.	8FF#X 8AA 8Dn 8E#X	.	.	.
.	.	.	.	.
.	8FF#J 8AA 8D 8E#	.	.	.
=5	=5	=5	=5	=5
!	!	!	!LO:TX:b:B:t=al	!
!	!	!	!LO:TX:a:B:t=al	!
2ryy	(8FF#X^L 8AA 8Dn 8E#X	.	2r	.
.	.	.	.	.
.	8FF# 8AA 8D 8E#	.	.	.
.	8FF#J 8AA 8D 8E#	.	.	.
=6	=6	=6	=6	=6
!	!LO:TX:b:i:t=secco	!	!	!
2ryy	.	p	8r	.
.	8FF#X 8AA 8Dn 8E#X	.	(16BLL	p
.	.	.	16c#XJJ)	.
.	.	.	(16c#LL	.
.	.	.	16d)	.
.	8FF#J 8AA 8D 8E#	.	(16d	.
.	.	.	16eJJ)	.
!!linebreak:original
=7	=7	=7	=7	=7
!	!	!	!LO:TX:t=[quarter]=144	!
!	!	!	!LO:TX:t=[quarter]=144	!
2ryy	(8FF#XL 8AA 8Dn 8E#X	.	16fLL	.
.	.	.	16f	.
.	.	.	(16g	.
.	.	.	16eJJ)	.
.	8FF# 8AA 8D 8E#	.	(16fLL	.
.	.	.	16e)	.
.	8FF#J 8AA 8D 8E#	.	16e	.
.	.	.	16gJJ	.
=8	=8	=8	=8	=8
2ryy	.	.	16fLL	.
.	.	.	16f	.
.	8FF#X 8AA 8Dn 8E#X	.	(16g	.
.	.	.	16eJJ)	.
!	!	!	!LO:TX:b:i:t=cresc.	!
.	.	.	(16fLL	.
.	.	.	16e)	.
.	8FF#J 8AA 8D 8E#	.	16e	.
.	.	.	16gJJ	.
=9	=9	=9	=9	=9
!	!LO:TX:a:i:t=sempre	!	!	!
2ryy	(8FF#XL 8AA 8Dn 8E#X	p	(16dLL	.
.	.	.	16c#X)	.
.	.	.	16c#	.
.	.	.	16eJJ	.
.	8FF# 8AA 8D 8E#	.	([4B	.
.	8FF#J 8AA 8D 8E#	.	.	.
=10	=10	=10	=10	=10
2ryy	.	.	4B]	.
.	8FF#X 8AA 8Dn 8E#X	.	.	.
.	.	.	8a#X^^)	f
!	!	!	!LO:TX:t=[quarter]=120	!
!	!	!	!LO:TX:t=[quarter]=120	!
.	8FF#J 8AA 8D 8E#	.	8r	.
=11	=11	=11	=11	=11
!	!LO:TX:b:i:t=dim.	!	!	!
2ryy	.	f	2r	.
.	.	.	.	.
.	8AAn 8BB#X 8E#X 8G#X)	.	.	.
.	.	.	.	.
=12	=12	=12	=12	=12
!	!	!	!LO:TX:a:t=accel.	!
!	!	!	!LO:TX:a:t=accel.	!
2ryy	(8AA^L 8BB#X 8E#X 8G#X	.	2r	.
.	.	.	.	.
.	8AA 8BB# 8E# 8G#	.	.	.
.	8AAJ 8BB# 8E# 8G#	.	.	.
!!linebreak:original
=13	=13	=13	=13	=13
2ryy	.	p	8r	.
!	!	!	!LO:TX:b:B:t=al	!
.	8AAn 8BB#X 8E#X 8G#X	.	(16BLL	p
!	!	!	!LO:TX:a:B:t=al	!
.	.	.	16c#XJJ)	.
.	8AA 8BB# 8E# 8G#	.	(16dLL	.
.	.	.	16e)	.
.	.	.	(16f	.
.	.	.	16gJJ)	.
=14	=14	=14	=14	=14
!	!	!	!LO:TX:t=[quarter]=144	!
!	!	!	!LO:TX:t=[quarter]=144	!
2ryy	8AAnL 8BB#X 8E#X 8G#X	.	16a-XLL	.
.	.	.	16a-	.
.	8AA 8BB# 8E# 8G#	.	(16b-X	.
.	.	.	16gJJ)	.
.	.	.	(16a-LL	.
.	.	.	16g)	.
.	8AAJ 8BB# 8E# 8G#	.	16g	.
.	.	.	16b-JJ	.
=15	=15	=15	=15	=15
2ryy	.	.	(16a-XLL	.
.	.	.	16g)	.
.	8AAn 8BB#X 8E#X 8G#X	.	16g	.
.	.	.	16b-XJJ	.
.	8AA 8BB# 8E# 8G#	.	16fLL	.
.	.	.	16f	.
.	.	.	(16g	.
.	.	.	16eJJ)	.
=16	=16	=16	=16	=16
2ryy	8AAnL 8BB#X 8E#X 8G#X	.	(16fLL	.
.	.	.	16e)	.
.	8AA 8BB# 8E# 8G#	.	16e	.
.	.	.	16gJJ	.
!	!	!	!LO:TX:b:i:t=cresc.	!
.	.	.	(16dLL	.
.	.	.	16c#X)	.
.	8AAJ 8BB# 8E# 8G#	.	16c#	.
.	.	.	16eJJ	.
=17	=17	=17	=17	=17
!	!LO:TX:a:i:t=sempre	!	!	!
2ryy	.	p	(16BLL	.
.	.	.	16c#X)	.
.	8AAn 8BB#X 8E#X 8G#X	.	16c#	.
.	.	.	16AJJ	.
.	8AA 8BB# 8E# 8G#	.	([4B	.
.	.	.	.	.
=18	=18	=18	=18	=18
2ryy	8AAnL 8BB#X 8E#X 8G#X	.	4B]	.
.	8AA 8BB# 8E# 8G#	.	.	.
.	.	.	8cc^^)	f
.	8AAJ 8BB# 8E# 8G#	.	8r	.
!!pagebreak:original
=19	=19	=19	=19	=19
!	!	!	!LO:TX:t=[quarter]=120	!
!	!LO:TX:b:i:t=poco	!	!LO:TX:t=[quarter]=120	!
8r	8r	f	2r	.
8FF#X^L 8AAn	8CL 8E-X 8Fn 8A-X 8Bn	>	.	.
8FFF#X 8AAA	8r	.	.	.
8FF#J 8AA	8CJ 8E- 8F 8A- 8B	.	.	.
=20	=20	=20	=20	=20
!	!	!	!LO:TX:a:t=accel.	!
!	!	!	!LO:TX:a:t=accel.	!
8FFF#X^L 8AAA	4r	.	8r	.
8FF#X 8AA	.	.	(16BLL	p
.	.	.	16dJJ)	.
!	!	!	!LO:TX:b:B:t=al	!
8r	8C 8E-X 8Fn 8A-X 8Bn	p ]	(16eLL	.
!	!	!	!LO:TX:a:B:t=al	!
.	.	.	16g)	.
8FFF#^J 8AAA	8r	.	(16g#X	.
.	.	.	16a#XJJ)	.
=21	=21	=21	=21	=21
!	!	!	!LO:TX:a:B:t=Tempo I	!
!	!	!	!LO:TX:b:B:t=Tempo I	!
8FF#XL 8AAn	8CL 8E-X 8Fn 8A-X 8Bn	.	16bLL	.
.	.	.	16b	.
8FFF#X^ 8AAA	8r	.	(16cc#X	.
.	.	.	16a#XJJ)	.
8FF# 8AA	8C 8E- 8F 8A- 8B	.	(16bLL	.
.	.	.	16a#)	.
8FF#J 8AA	8CJ 8E- 8F 8A- 8B	.	16a#	.
.	.	.	16f##XJJ	.
!!linebreak:original
=22	=22	=22	=22	=22
8FFF#X^L 8AAA	4r	.	16bLL	.
.	.	.	16b	.
8FF#X 8AA	.	.	(16cc#X	.
.	.	.	16a#XJJ)	.
8r	8C 8E-X 8Fn 8A-X 8Bn	.	(16bLL	.
.	.	.	16a#)	.
8FFF#^J 8AAA	8r	.	16a#	.
.	.	.	16f##XJJ	.
=23	=23	=23	=23	=23
!	!	!	!LO:TX:b:i:t=cresc.	!
8FF#XL 8AAn	8CL 8E-X 8Fn 8A-X 8Bn	.	(16bLL	.
.	.	.	16a#X)	.
8FFF#X^ 8AAA	8r	.	16a#	.
.	.	.	16f##XJJ	.
8FF# 8AA	8C 8E- 8Fn 8A- 8Bn	.	(16bLL	.
.	.	.	16a#)	.
8FF#J 8AA	8CJ 8E- 8Fn 8A- 8Bn	.	16a#	.
.	.	.	16fJJ	.
=24	=24	=24	=24	=24
8FFF#X^L 8AAA	4r	.	16eLL	.
.	.	.	16e	.
8FF#X 8AA	.	.	(16f#X	.
.	.	.	16dJJ)	.
!	!LO:TX:b:i:t=cresc.	!	!	!
8r	8C 8E-X 8Fn 8A-X 8Bn	.	(16eLL	.
.	.	.	16c#X)	.
8FFF#^J 8AAA	8r	.	16c#	.
.	.	.	16AJJ	.
=||	=||	=||	=||	=||
*-	*-	*-	*-	*-
!!!system-decoration: s1[({(s2,s3)})]
